assets/post/images/constellation5.svg

<svg xmlns="http://www.w3.org/2000/svg" width="1195" height="1129" overflow="hidden"><defs><clipPath id="a"><path d="M2893 437h1195v1129H2893z"/></clipPath></defs><g clip-path="url(#a)" transform="translate(-2893 -437)"><path fill="none" stroke="#000" stroke-miterlimit="8" stroke-width="9.167" d="M2893.5 1016.5h1189.37m-629.37 549.44V462.5"/><path fill="#d74514" fill-rule="evenodd" d="M3779 654c0-24.3 19.48-44 43.5-44s43.5 19.7 43.5 44-19.48 44-43.5 44-43.5-19.699-43.5-44"/><text fill="#d74514" font-family="Microsoft YaHei,Microsoft YaHei_MSFontService,sans-serif" font-size="73" font-weight="700" transform="translate(3771.46 567)">0<tspan x="45.26" y="0">0</tspan></text><path fill-rule="evenodd" d="M4030.57 1074.78h14.26l-.39 1.74c-.91.19-1.55.41-1.95.64-.39.24-.74.6-1.05 1.07-.31.48-.63 1.22-.96 2.23s-.75 2.66-1.25 4.94l-6.09 27.66c-.31 1.4-.51 2.51-.61 3.33-.09.82-.14 1.56-.14 2.23 0 1.07.27 1.82.8 2.26.54.44 1.43.71 2.69.8l-.39 1.75h-14.26l.39-1.75q1.365-.21 2.04-.69c.45-.32.83-.77 1.14-1.34s.59-1.26.85-2.08.66-2.41 1.18-4.76l6.06-27.45c.52-2.37.78-4.29.78-5.74 0-1.11-.28-1.89-.83-2.33-.56-.44-1.45-.7-2.66-.77Z"/><text x="4021.23" y="1117.35" fill-opacity="0" font-family="Arial,Arial_MSFontService,sans-serif" font-size="48.655">𝐼</text><path fill-rule="evenodd" d="M3525.84 479.613c-2.56 0-4.96.915-7.18 2.745s-4.17 4.444-5.84 7.842c-1.68 3.398-2.98 7.129-3.91 11.192-.92 4.064-1.39 7.652-1.39 10.765 0 7.343 2.68 11.014 8.02 11.014q4.965 0 9.09-4.616c2.76-3.077 4.98-7.337 6.67-12.779 1.68-5.441 2.53-10.527 2.53-15.255 0-3.541-.66-6.244-1.96-8.11q-1.965-2.798-6.03-2.798m.4-3.136c4.58 0 8.12 1.33 10.6 3.992s3.73 6.511 3.73 11.549c0 3.327-.53 7.045-1.57 11.156q-1.575 6.167-4.32 10.89-2.745 4.722-6.36 7.61t-7.86 3.992q.825 2.603 1.53 4.295.72 1.693 1.38 2.745c.44.701.87 1.224 1.3 1.568s.85.577 1.28.695q.645.179 1.5.179c.9 0 1.82-.262 2.74-.785.93-.522 1.96-1.425 3.1-2.709l1.86 1.997q-2.85 3.1-5.31 4.384-2.46 1.283-5.07 1.283-2.955 0-4.83-1.319-1.86-1.318-3.24-4.206c-.91-1.925-1.8-4.444-2.65-7.557-4.31-.237-7.58-1.663-9.84-4.277q-3.39-3.92-3.39-11.05 0-5.346 1.8-12.083c1.2-4.491 2.94-8.454 5.21-11.888 2.26-3.433 4.97-6.035 8.12-7.806q4.725-2.655 10.29-2.655"/><text x="3500.82" y="531.463" fill-opacity="0" font-family="Arial,Arial_MSFontService,sans-serif" font-size="62.841">𝑄</text><path fill="#d74514" fill-rule="evenodd" d="M3087 654c0-24.3 19.7-44 44-44s44 19.7 44 44-19.7 44-44 44-44-19.699-44-44"/><text fill="#d74514" font-family="Microsoft YaHei,Microsoft YaHei_MSFontService,sans-serif" font-size="73" font-weight="700" transform="translate(3080.23 567)">01</text><path fill="#d74514" fill-rule="evenodd" d="M3779 1346.5c0-24.02 19.48-43.5 43.5-43.5s43.5 19.48 43.5 43.5-19.48 43.5-43.5 43.5-43.5-19.48-43.5-43.5"/><text fill="#d74514" font-family="Microsoft YaHei,Microsoft YaHei_MSFontService,sans-serif" font-size="73" font-weight="700" transform="translate(3771.46 1260)">10</text><path fill="#d74514" fill-rule="evenodd" d="M3087 1346.5c0-24.02 19.7-43.5 44-43.5s44 19.48 44 43.5-19.7 43.5-44 43.5-44-19.48-44-43.5"/><text fill="#d74514" font-family="Microsoft YaHei,Microsoft YaHei_MSFontService,sans-serif" font-size="73" font-weight="700" transform="translate(3080.23 1260)">1<tspan x="45.26" y="0">1</tspan></text></g></svg>

<svg width="1195" height="1129" xmlns="http://www.w3.org/2000/svg" xmlns:xlink="http://www.w3.org/1999/xlink" overflow="hidden"><defs><clipPath id="clip0"><rect x="2893" y="437" width="1195" height="1129"/></clipPath></defs><g clip-path="url(#clip0)" transform="translate(-2893 -437)"><path d="M2893.5 1016.5 4082.87 1016.5" stroke="#000000" stroke-width="9.16667" stroke-miterlimit="8" fill="none" fill-rule="evenodd"/><path d="M0 0 0.000360892 1103.44" stroke="#000000" stroke-width="9.16667" stroke-miterlimit="8" fill="none" fill-rule="evenodd" transform="matrix(1 0 0 -1 3453.5 1565.94)"/><path d="M3779 654C3779 629.7 3798.48 610 3822.5 610 3846.52 610 3866 629.7 3866 654 3866 678.301 3846.52 698 3822.5 698 3798.48 698 3779 678.301 3779 654Z" fill="#D74514" fill-rule="evenodd"/><text fill="#D74514" font-family="Microsoft YaHei,Microsoft YaHei_MSFontService,sans-serif" font-weight="700" font-size="73" transform="matrix(1 0 0 1 3771.46 567)">0<tspan font-size="73" x="45.2603" y="0">0</tspan></text><path d="M4030.57 1074.78 4044.83 1074.78 4044.44 1076.52C4043.53 1076.71 4042.89 1076.93 4042.49 1077.16 4042.1 1077.4 4041.75 1077.76 4041.44 1078.23 4041.13 1078.71 4040.81 1079.45 4040.48 1080.46 4040.15 1081.47 4039.73 1083.12 4039.23 1085.4L4033.14 1113.06C4032.83 1114.46 4032.63 1115.57 4032.53 1116.39 4032.44 1117.21 4032.39 1117.95 4032.39 1118.62 4032.39 1119.69 4032.66 1120.44 4033.19 1120.88 4033.73 1121.32 4034.62 1121.59 4035.88 1121.68L4035.49 1123.43 4021.23 1123.43 4021.62 1121.68C4022.53 1121.54 4023.21 1121.31 4023.66 1120.99 4024.11 1120.67 4024.49 1120.22 4024.8 1119.65 4025.11 1119.08 4025.39 1118.39 4025.65 1117.57 4025.91 1116.75 4026.31 1115.16 4026.83 1112.81L4032.89 1085.36C4033.41 1082.99 4033.67 1081.07 4033.67 1079.62 4033.67 1078.51 4033.39 1077.73 4032.84 1077.29 4032.28 1076.85 4031.39 1076.59 4030.18 1076.52Z" fill-rule="evenodd"/><text fill="#000000" fill-opacity="0" font-family="Arial,Arial_MSFontService,sans-serif" font-size="48.6548" x="4021.23" y="1117.35">𝐼</text><path d="M3525.84 479.613C3523.28 479.613 3520.88 480.528 3518.66 482.358 3516.44 484.188 3514.49 486.802 3512.82 490.2 3511.14 493.598 3509.84 497.329 3508.91 501.392 3507.99 505.456 3507.52 509.044 3507.52 512.157 3507.52 519.5 3510.2 523.171 3515.54 523.171 3518.85 523.171 3521.88 521.632 3524.63 518.555 3527.39 515.478 3529.61 511.218 3531.3 505.776 3532.98 500.335 3533.83 495.249 3533.83 490.521 3533.83 486.98 3533.17 484.277 3531.87 482.411 3530.56 480.546 3528.55 479.613 3525.84 479.613ZM3526.24 476.477C3530.82 476.477 3534.36 477.807 3536.84 480.469 3539.32 483.13 3540.57 486.98 3540.57 492.018 3540.57 495.345 3540.04 499.063 3539 503.174 3537.95 507.285 3536.51 510.915 3534.68 514.064 3532.85 517.212 3530.73 519.749 3528.32 521.674 3525.91 523.599 3523.29 524.93 3520.46 525.666 3521.01 527.401 3521.52 528.833 3521.99 529.961 3522.47 531.09 3522.93 532.005 3523.37 532.706 3523.81 533.407 3524.24 533.93 3524.67 534.274 3525.1 534.619 3525.52 534.851 3525.95 534.969 3526.38 535.088 3526.88 535.148 3527.45 535.148 3528.35 535.148 3529.27 534.886 3530.19 534.363 3531.12 533.841 3532.15 532.938 3533.29 531.654L3535.15 533.651C3533.25 535.718 3531.48 537.179 3529.84 538.035 3528.2 538.89 3526.51 539.318 3524.77 539.318 3522.8 539.318 3521.19 538.878 3519.94 537.999 3518.7 537.12 3517.62 535.718 3516.7 533.793 3515.79 531.868 3514.9 529.349 3514.05 526.236 3509.74 525.999 3506.47 524.573 3504.21 521.959 3501.95 519.345 3500.82 515.662 3500.82 510.909 3500.82 507.345 3501.42 503.317 3502.62 498.826 3503.82 494.335 3505.56 490.372 3507.83 486.938 3510.09 483.505 3512.8 480.903 3515.95 479.132 3519.1 477.362 3522.53 476.477 3526.24 476.477Z" fill-rule="evenodd"/><text fill="#000000" fill-opacity="0" font-family="Arial,Arial_MSFontService,sans-serif" font-size="62.8413" x="3500.82" y="531.463">𝑄</text><path d="M3087 654C3087 629.7 3106.7 610 3131 610 3155.3 610 3175 629.7 3175 654 3175 678.301 3155.3 698 3131 698 3106.7 698 3087 678.301 3087 654Z" fill="#D74514" fill-rule="evenodd"/><text fill="#D74514" font-family="Microsoft YaHei,Microsoft YaHei_MSFontService,sans-serif" font-weight="700" font-size="73" transform="matrix(1 0 0 1 3080.23 567)">01</text><path d="M3779 1346.5C3779 1322.48 3798.48 1303 3822.5 1303 3846.52 1303 3866 1322.48 3866 1346.5 3866 1370.52 3846.52 1390 3822.5 1390 3798.48 1390 3779 1370.52 3779 1346.5Z" fill="#D74514" fill-rule="evenodd"/><text fill="#D74514" font-family="Microsoft YaHei,Microsoft YaHei_MSFontService,sans-serif" font-weight="700" font-size="73" transform="matrix(1 0 0 1 3771.46 1260)">10</text><path d="M3087 1346.5C3087 1322.48 3106.7 1303 3131 1303 3155.3 1303 3175 1322.48 3175 1346.5 3175 1370.52 3155.3 1390 3131 1390 3106.7 1390 3087 1370.52 3087 1346.5Z" fill="#D74514" fill-rule="evenodd"/><text fill="#D74514" font-family="Microsoft YaHei,Microsoft YaHei_MSFontService,sans-serif" font-weight="700" font-size="73" transform="matrix(1 0 0 1 3080.23 1260)">1<tspan font-size="73" x="45.2603" y="0">1</tspan></text></g></svg>
